public/new/svg4.svg

<svg fill="none" height="28" viewBox="0 0 29 28" width="29" xmlns="http://www.w3.org/2000/svg"><path d="m8.8669 13 2.647 2.646-.707.708-3.855-3.854 3.853-3.854.708.708-2.646 2.646h5.793c.7223 0 1.4375.1423 2.1048.4187s1.2736.6815 1.7843 1.1922.9158 1.117 1.1922 1.7843.4187 1.3825.4187 2.1048v1.5h-1v-1.5c0-.591-.1164-1.1761-.3425-1.7221-.2262-.5459-.5577-1.042-.9755-1.4599-.4179-.4178-.914-.7493-1.4599-.9755-.546-.2261-1.1311-.3425-1.7221-.3425z" fill="#77787e"/></svg>

<svg width="29" height="28" viewBox="0 0 29 28" fill="none" xmlns="http://www.w3.org/2000/svg">
<path d="M8.8669 13L11.5139 15.646L10.8069 16.354L6.9519 12.5L10.8049 8.646L11.5129 9.354L8.8669 12H14.6599C15.3822 12 16.0974 12.1423 16.7647 12.4187C17.432 12.6951 18.0383 13.1002 18.549 13.6109C19.0597 14.1216 19.4648 14.7279 19.7412 15.3952C20.0176 16.0625 20.1599 16.7777 20.1599 17.5V19H19.1599V17.5C19.1599 16.909 19.0435 16.3239 18.8174 15.7779C18.5912 15.232 18.2597 14.7359 17.8419 14.318C17.424 13.9002 16.9279 13.5687 16.382 13.3425C15.836 13.1164 15.2509 13 14.6599 13H8.8669Z" fill="#77787E"/>
</svg>
